svgs/lovebox.svg

<svg width="192" height="192" viewBox="0 0 192 192" fill="none" xmlns="http://www.w3.org/2000/svg">
<path d="M87.3803 161.986C86.9761 161.582 86.6455 157.806 86.6455 153.595V145.939H78.8152H70.9849V138.109V130.279H63.2664C54.2974 130.279 54.2804 130.26 54.2804 120.275V113.574H46.4958H38.7113L38.4046 106.005C38.0978 98.4356 38.0978 98.4356 33.3997 98.1707C20.8327 97.4621 21.8442 99.8616 22.1579 71.5009L22.4373 46.2338L30.2676 45.7118L38.0979 45.1898L38.4051 37.5949L38.7124 30L55.6317 30.2866L72.551 30.5733L72.8578 38.1425L73.1646 45.7118H79.8197C89.7534 45.7118 89.7776 45.7338 89.7776 54.6978V62.4163H96.52H103.262L103.567 54.3251L103.872 46.2338L111.397 45.928L118.921 45.6221L119.227 38.0977L119.533 30.5733H136.759H153.986L154.292 38.0977L154.597 45.6221L162.122 45.928L169.646 46.2338L169.927 71.2171C170.143 90.5076 169.905 96.3919 168.883 97.041C168.154 97.5033 164.642 97.8888 161.079 97.8975L154.599 97.9135L154.292 105.483L153.986 113.052L145.938 113.356L137.889 113.66L137.585 121.708L137.281 129.757L129.757 130.062L122.232 130.368L121.926 137.893L121.621 145.417L113.573 145.721L105.524 146.025L105.22 154.073L104.916 162.122L96.5156 162.421C91.8953 162.586 87.7844 162.391 87.3803 161.986Z" stroke="black" stroke-width="12" stroke-linecap="round" stroke-linejoin="round"/>
</svg>

<svg width="192" height="192" viewBox="0 0 192 192" fill="none" xmlns="http://www.w3.org/2000/svg"><path d="M87.38 161.986c-.404-.404-.734-4.18-.734-8.391v-7.656H70.984v-15.66h-7.719c-8.969 0-8.986-.019-8.986-10.004v-6.701H38.711l-.306-7.569c-.307-7.57-.307-7.57-5.005-7.834-12.567-.709-11.556 1.69-11.242-26.67l.28-25.267 7.83-.522 7.83-.522.307-7.595.307-7.595 16.92.287 16.919.286.307 7.57.307 7.569h6.655c9.933 0 9.958.022 9.958 8.986v7.718h13.484l.305-8.09.305-8.092 7.525-.306 7.524-.306.306-7.524.306-7.525h34.453l.306 7.525.305 7.524 7.525.306 7.524.306.281 24.983c.216 19.29-.022 25.175-1.044 25.824-.729.462-4.241.848-7.804.856l-6.48.016-.307 7.57-.306 7.569-8.048.304-8.049.304-.304 8.048-.304 8.049-7.524.305-7.525.306-.306 7.525-.305 7.524-8.048.304-8.049.304-.304 8.048-.304 8.049-8.4.299c-4.62.165-8.732-.03-9.136-.435Z" stroke="#000" stroke-width="12" stroke-linecap="round" stroke-linejoin="round"/></svg>
